X:18299
T:Villagers,The,bass part. JNu.24
M:6/8
Q:100
S:James Nuttall MS,c1830?,Rossendale,East Lancs.
R:Jig
O:England
A:East Lancashire
Z:Chris Partington
K:Bb
"Thirdo,read as bass clef"G2GG2G|G2Gd2d|G2Gd2d|g2gd3|!
G2GA2A|G2Gd2d|G2Gc2c|d2dG3::!
G2GG2G|.G2z.G2z|G2GG2G|d2dd3|!
G2GG2G|GBdG3|.G2z.G2z|d2dG3:|]


